X:1
T:An Dros - Hanter Dros
%info:line
C:Brittany
Z:2003 John Chambers <jc:trillian.mit.edu> http://trillian.mit.edu/~jc/music/
M:3/4
L:1/16
K:G
"A"\
|: "G"G2GA B2A2 B2A2 | G2GA B2A2 B4 :|[M:2/4]\
|: "G"B2BG A2d2 | B2AG A4 | B2BG A2B2 | cBAB G4 :|
M:3/4
L:1/16
"B"\
|: "Em"B2AB A2G2 F2GA | B2AB A2G2 F4 :|[M:2/4]\
|: "Em"E2FG A4 | B2AG F4 | B2AG A2B2 | G2FG E4 :|
M:3/4
L:1/16
"C"\
|: "D"D2FG A2B2 A4 | d2cB A2F2 G2A2 :|[M:2/4]\
|: "D"A2BA F2D2 | G2FG E4 | A2BA E2FG | F2EF D4 :|
